icons/Color/24/gimp-prefs-folders-scripts.svg

<svg height="24" viewBox="0 0 24 24" width="24" xmlns="http://www.w3.org/2000/svg" xmlns:xlink="http://www.w3.org/1999/xlink"><linearGradient id="a" gradientTransform="matrix(.60072161 0 0 .60098717 -1.832228 -.055418)" gradientUnits="userSpaceOnUse" x1="18.112709" x2="15.514889" y1="31.36775" y2="6.18025"><stop offset="0" stop-color="#424242"/><stop offset="1" stop-color="#777"/></linearGradient><linearGradient id="b" gradientTransform="matrix(.58553618 0 0 .59905303 -1.767658 .033281)" gradientUnits="userSpaceOnUse" x1="22.175976" x2="22.065331" y1="36.987999" y2="32.050499"><stop offset="0" stop-color="#6194cb"/><stop offset="1" stop-color="#729fcf"/></linearGradient><linearGradient id="c" gradientTransform="matrix(.77145159 0 0 .50194756 -2.348706 -.974753)" gradientUnits="userSpaceOnUse" x1="13.035696" x2="12.853771" xlink:href="#d" y1="32.567184" y2="46.689312"/><linearGradient id="d"><stop offset="0" stop-color="#fff" stop-opacity=".796078"/><stop offset="1" stop-color="#fff" stop-opacity=".215686"/></linearGradient><linearGradient id="e" gradientUnits="userSpaceOnUse" x1="1247.0065" x2="1247.0065" xlink:href="#f" y1="343.349729" y2="362.540351"/><linearGradient id="f"><stop offset="0" stop-color="#d3d7cf"/><stop offset="1" stop-color="#fff"/></linearGradient><linearGradient id="g" gradientUnits="userSpaceOnUse" x1="1256.354164" x2="1256.354164" y1="346.257554" y2="340.423253"><stop offset="0" stop-color="#888a85"/><stop offset="1" stop-color="#888a85"/></linearGradient><linearGradient id="h" gradientUnits="userSpaceOnUse" x1="1254.694" x2="1254.7565" xlink:href="#d" y1="346.7252" y2="370.1002"/><linearGradient id="i" gradientUnits="userSpaceOnUse" x1="1240.6315" x2="1240.6315" xlink:href="#f" y1="357.4752" y2="356.218967"/><linearGradient id="j" gradientUnits="userSpaceOnUse" x1="1239.53775" x2="1238.5065" y1="353.224418" y2="356.9127"><stop offset="0" stop-color="#babdb6"/><stop offset="1" stop-color="#888a85"/></linearGradient><path d="m.88410335 23.195223c.013093.250194.27627475.500388.52635795.500388h18.8188177c.250082 0 .487072-.250194.473979-.500388l-.562542-16.362918c-.013098-.250193-.276269-.500392-.526352-.500392h-7.9721c-.291384 0-.741575-.189664-.841998-.665071l-.367276-1.738699c-.093395-.44213-.5299646-.623756-.7800479-.623756h-8.87797962c-.25008809 0-.48707757.250193-.4739843.500387z" fill="#fff" stroke="url(#a)" stroke-linecap="round" stroke-linejoin="round" stroke-width=".600854"/><path d="m.003854 0h23.996141v23.996084h-23.996141z" fill="#bebebe" opacity="0"/><g stroke-linecap="round" transform="matrix(.9354563 0 0 .9354563 8.03269981042 .99999918958)"><path d="m4 .5c-.827303 0-1.500001 1.12-1.5 2.5v9.5h-.03125-1.9375c-.02001.162695-.03125.3275-.03125.5 0 1.38.672698 2.5 1.5 2.5h10c.827303 0 1.5-1.12 1.5-2.5v-9.5h1.96875c.02001-.162695.03125-.3275.03125-.5 0-1.38-.672697-2.5-1.5-2.5-5.694672.124755-4.305328 0-10 0z" fill="url(#e)" fill-rule="evenodd" stroke="url(#g)" stroke-linejoin="round"/><path d="m4.28125 1.5c-.391244 0-.78125.368273-.78125 1.5v9.5h-.03125-1.9375c-.02001.162695-.03125.3275-.03125.5 0 1.38.672698 1.5 1.5 1.5h8c.827303 0 1.5-.12 1.5-1.5.000645-6.639263 0-3.423675 0-10 0-.486756.01547-.971272.455806-1.5z" fill="none" stroke="url(#h)"/><path d="m.53125 12.5c-.02001.162695-.03125.3275-.03125.5 0 1.38.672698 2.5 1.5 2.5h10c-.827304 0-1.5-1.12-1.5-2.5 0-.1725.01124-.337305.03125-.5z" fill="url(#i)" fill-rule="evenodd" stroke="url(#j)" stroke-linejoin="round" stroke-width="1.069913"/></g><path d="m21.527038 23.702238c.669792-.02639 1.149451-.656742 1.198615-1.390406.463618-6.918276.971614-12.7190634.971614-12.7190634.04224-.1482565-.09832-.2965121-.28114-.2965121h-20.1255542s-1.0834287 13.0994285-1.0834287 13.0994285c-.067076.588309-.2728642 1.081121-.9074848 1.308161l20.2273787-.0016z" display="block" fill="url(#b)" stroke="#3465a4" stroke-linejoin="round" stroke-width=".592262"/><path d="m3.7994298 9.960143 19.2007262.039857-.921678 12.299996c-.04937.658913-.263893.878264-1.096528.878264-1.095851 0-16.7922948-.01993-18.3830937-.01993.1367828-.197279.1954297-.607942.1962147-.617775z" fill="none" opacity=".465909" stroke="url(#c)" stroke-linecap="round" stroke-width=".600063"/></svg>

<?xml version="1.0" encoding="UTF-8" standalone="no"?>
<!-- Created with Inkscape (http://www.inkscape.org/) -->

<svg
   xmlns:dc="http://purl.org/dc/elements/1.1/"
   xmlns:cc="http://creativecommons.org/ns#"
   xmlns:rdf="http://www.w3.org/1999/02/22-rdf-syntax-ns#"
   xmlns:svg="http://www.w3.org/2000/svg"
   xmlns="http://www.w3.org/2000/svg"
   xmlns:xlink="http://www.w3.org/1999/xlink"
   xmlns:sodipodi="http://sodipodi.sourceforge.net/DTD/sodipodi-0.dtd"
   xmlns:inkscape="http://www.inkscape.org/namespaces/inkscape"
   width="24"
   height="24"
   id="svg97"
   sodipodi:version="0.32"
   inkscape:version="0.92pre1 unknown"
   sodipodi:docname="gimp-prefs-folders-scripts-24.svg"
   inkscape:output_extension="org.inkscape.output.svg.inkscape"
   version="1.1"
   viewBox="0 0 24 24">
  <defs
     id="defs3">
    <linearGradient
       id="linearGradient9766">
      <stop
         style="stop-color:#6194cb;stop-opacity:1;"
         offset="0"
         id="stop9768" />
      <stop
         style="stop-color:#729fcf;stop-opacity:1;"
         offset="1"
         id="stop9770" />
    </linearGradient>
    <linearGradient
       id="linearGradient3096">
      <stop
         id="stop3098"
         offset="0"
         style="stop-color:#424242;stop-opacity:1;" />
      <stop
         id="stop3100"
         offset="1.0000000"
         style="stop-color:#777777;stop-opacity:1.0000000;" />
    </linearGradient>
    <linearGradient
       gradientUnits="userSpaceOnUse"
       y2="6.1802502"
       x2="15.514889"
       y1="31.36775"
       x1="18.112709"
       id="linearGradient3104-5"
       xlink:href="#linearGradient3096"
       inkscape:collect="always"
       gradientTransform="matrix(0.60072161,0,0,0.60098717,-1.8322278,-0.055418)" />
    <linearGradient
       inkscape:collect="always"
       xlink:href="#linearGradient9766"
       id="linearGradient9772"
       x1="22.175976"
       y1="36.987999"
       x2="22.065331"
       y2="32.050499"
       gradientUnits="userSpaceOnUse"
       gradientTransform="matrix(0.58553618,0,0,0.59905303,-1.7676575,0.03328073)" />
    <linearGradient
       gradientUnits="userSpaceOnUse"
       y2="46.689312"
       x2="12.853771"
       y1="32.567184"
       x1="13.035696"
       gradientTransform="matrix(0.77145159,0,0,0.50194756,-2.3487059,-0.974753)"
       id="linearGradient322-1"
       xlink:href="#linearGradient8340"
       inkscape:collect="always" />
    <linearGradient
       id="linearGradient8340">
      <stop
         id="stop8342"
         stop-color="#ffffff"
         stop-opacity="0.796078" />
      <stop
         id="stop8344"
         offset="1"
         stop-color="#ffffff"
         stop-opacity="0.215686" />
    </linearGradient>
    <linearGradient
       y2="42.627651"
       x2="36.4375"
       y1="23.437029"
       x1="36.4375"
       gradientTransform="translate(1210.569,319.9127)"
       gradientUnits="userSpaceOnUse"
       id="linearGradient9398"
       xlink:href="#linearGradient2888-0" />
    <linearGradient
       id="linearGradient2888-0">
      <stop
         id="stop2890-8"
         offset="0"
         style="stop-color:#d3d7cf;stop-opacity:1;" />
      <stop
         id="stop2892-0"
         offset="1"
         style="stop-color:white;stop-opacity:1" />
    </linearGradient>
    <linearGradient
       y2="20.510553"
       x2="45.785164"
       y1="26.344854"
       x1="45.785164"
       gradientTransform="translate(1210.569,319.9127)"
       gradientUnits="userSpaceOnUse"
       id="linearGradient9400"
       xlink:href="#linearGradient2962" />
    <linearGradient
       id="linearGradient2962">
      <stop
         style="stop-color:#888a85;stop-opacity:1;"
         offset="0"
         id="stop2964" />
      <stop
         style="stop-color:#888a85;stop-opacity:1"
         offset="1"
         id="stop2966" />
    </linearGradient>
    <linearGradient
       y2="50.1875"
       x2="44.1875"
       y1="26.8125"
       x1="44.125"
       gradientTransform="translate(1210.569,319.9127)"
       gradientUnits="userSpaceOnUse"
       id="linearGradient9402"
       xlink:href="#linearGradient8340" />
    <linearGradient
       gradientTransform="translate(1210.569,312.9127)"
       y2="43.306267"
       x2="30.0625"
       y1="44.5625"
       x1="30.0625"
       gradientUnits="userSpaceOnUse"
       id="linearGradient3284-2"
       xlink:href="#linearGradient2888-0" />
    <linearGradient
       y2="44"
       x2="27.9375"
       y1="40.311718"
       x1="28.96875"
       gradientTransform="translate(1210.569,312.9127)"
       gradientUnits="userSpaceOnUse"
       id="linearGradient9404"
       xlink:href="#linearGradient2931" />
    <linearGradient
       id="linearGradient2931">
      <stop
         id="stop2933"
         offset="0"
         style="stop-color:#babdb6;stop-opacity:1" />
      <stop
         id="stop2935"
         offset="1"
         style="stop-color:#888a85;stop-opacity:1" />
    </linearGradient>
  </defs>
  <sodipodi:namedview
     fill="#729fcf"
     id="base"
     pagecolor="#ffffff"
     bordercolor="#666666"
     borderopacity="0.10196078"
     inkscape:pageopacity="0.0"
     inkscape:pageshadow="2"
     inkscape:zoom="11.313708"
     inkscape:cx="11.30665"
     inkscape:cy="7.530029"
     inkscape:current-layer="svg97"
     showgrid="true"
     inkscape:grid-bbox="true"
     inkscape:document-units="px"
     inkscape:window-width="1920"
     inkscape:window-height="1016"
     inkscape:window-x="0"
     inkscape:window-y="27"
     inkscape:showpageshadow="false"
     stroke="#3465a4"
     inkscape:window-maximized="1">
    <inkscape:grid
       type="xygrid"
       id="grid4153" />
  </sodipodi:namedview>
  <metadata
     id="metadata4">
    <rdf:RDF>
      <cc:Work
         rdf:about="">
        <dc:format>image/svg+xml</dc:format>
        <dc:type
           rdf:resource="http://purl.org/dc/dcmitype/StillImage" />
        <dc:title></dc:title>
        <dc:date />
        <dc:creator>
          <cc:Agent>
            <dc:title>Jakub Steiner</dc:title>
          </cc:Agent>
        </dc:creator>
        <cc:license
           rdf:resource="http://creativecommons.org/publicdomain/zero/1.0/" />
        <dc:source>http://jimmac.musichall.cz</dc:source>
        <dc:subject>
          <rdf:Bag>
            <rdf:li>folder</rdf:li>
            <rdf:li>directory</rdf:li>
          </rdf:Bag>
        </dc:subject>
      </cc:Work>
      <cc:License
         rdf:about="http://creativecommons.org/publicdomain/zero/1.0/">
        <cc:permits
           rdf:resource="http://creativecommons.org/ns#Reproduction" />
        <cc:permits
           rdf:resource="http://creativecommons.org/ns#Distribution" />
        <cc:permits
           rdf:resource="http://creativecommons.org/ns#DerivativeWorks" />
      </cc:License>
    </rdf:RDF>
  </metadata>
  <g
     id="layer1"
     inkscape:label="Folder"
     inkscape:groupmode="layer"
     transform="translate(0,-24)" />
  <g
     id="g4305">
    <path
       sodipodi:nodetypes="ccccccssssccc"
       style="fill:#ffffff;fill-opacity:1;fill-rule:nonzero;stroke:url(#linearGradient3104-5);stroke-width:0.60085434;stroke-linecap:round;stroke-linejoin:round;stroke-miterlimit:4;stroke-dasharray:none;stroke-opacity:1"
       id="path216-5"
       d="m 0.88410335,23.195223 c 0.013093,0.250194 0.27627475,0.500388 0.52635795,0.500388 H 20.229279 c 0.250082,0 0.487072,-0.250194 0.473979,-0.500388 L 20.140716,6.832305 C 20.127618,6.582112 19.864447,6.331913 19.614364,6.331913 h -7.9721 c -0.291384,0 -0.741575,-0.189664 -0.841998,-0.665071 L 10.43299,3.928143 C 10.339595,3.486013 9.9030254,3.304387 9.6529421,3.304387 H 0.77496248 c -0.25008809,0 -0.48707757,0.250193 -0.4739843,0.500387 z"
       inkscape:connector-curvature="0" />
    <rect
       y="0"
       x="0.003854125"
       height="23.996084"
       width="23.996141"
       id="rect3965-5"
       style="color:#000000;clip-rule:nonzero;display:inline;overflow:visible;visibility:visible;opacity:0;isolation:auto;mix-blend-mode:normal;color-interpolation:sRGB;color-interpolation-filters:linearRGB;solid-color:#000000;solid-opacity:1;fill:#bebebe;fill-opacity:1;fill-rule:nonzero;stroke:none;stroke-width:0.73938024;stroke-linecap:round;stroke-linejoin:miter;stroke-miterlimit:4;stroke-dasharray:none;stroke-dashoffset:0;stroke-opacity:1;color-rendering:auto;image-rendering:auto;shape-rendering:auto;text-rendering:auto;enable-background:accumulate" />
    <g
       transform="matrix(0.9354563,0,0,0.9354563,8,1.0326992)"
       id="g3987-5"
       style="display:inline">
      <g
         id="g3980-3"
         transform="translate(0.03495646,-0.03495646)">
        <g
           transform="matrix(0.186703,0,0,0.186703,-21.1073,57.62299)"
           id="g891-54" />
        <path
           inkscape:connector-curvature="0"
           id="rect1934-0"
           d="M 4,0.5 C 3.172697,0.5 2.499999,1.62 2.5,3 v 9.5 H 2.46875 0.53125 C 0.51124,12.662695 0.5,12.8275 0.5,13 c 0,1.38 0.672698,2.5 1.5,2.5 h 10 c 0.827303,0 1.5,-1.12 1.5,-2.5 V 3.5 h 1.96875 C 15.48876,3.337305 15.5,3.1725 15.5,3 15.5,1.62 14.827303,0.5 14,0.5 8.305328,0.624755 9.694672,0.5 4,0.5 Z"
           style="color:#000000;display:inline;overflow:visible;visibility:visible;fill:url(#linearGradient9398);fill-opacity:1;fill-rule:evenodd;stroke:url(#linearGradient9400);stroke-width:1.00000012;stroke-linecap:round;stroke-linejoin:round;stroke-miterlimit:4;stroke-dasharray:none;stroke-dashoffset:0;stroke-opacity:1;marker:none;marker-start:none;marker-mid:none;marker-end:none" />
        <path
           inkscape:connector-curvature="0"
           id="path2904-5"
           d="M 4.28125,1.5 C 3.890006,1.5 3.5,1.868273 3.5,3 v 9.5 H 3.46875 1.53125 C 1.51124,12.662695 1.5,12.8275 1.5,13 c 0,1.38 0.672698,1.5 1.5,1.5 h 8 c 0.827303,0 1.5,-0.12 1.5,-1.5 6.45e-4,-6.639263 0,-3.423675 0,-10 0,-0.486756 0.01547,-0.971272 0.455806,-1.5 z"
           style="color:#000000;display:inline;overflow:visible;visibility:visible;fill:none;fill-opacity:1;fill-rule:evenodd;stroke:url(#linearGradient9402);stroke-width:1;stroke-linecap:round;stroke-linejoin:miter;stroke-miterlimit:4;stroke-dasharray:none;stroke-dashoffset:0;stroke-opacity:1;marker:none;marker-start:none;marker-mid:none;marker-end:none" />
        <path
           inkscape:connector-curvature="0"
           id="path2872-2"
           d="M 0.53125,12.5 C 0.51124,12.662695 0.5,12.8275 0.5,13 c 0,1.38 0.672698,2.5 1.5,2.5 h 10 c -0.827304,0 -1.5,-1.12 -1.5,-2.5 0,-0.1725 0.01124,-0.337305 0.03125,-0.5 z"
           style="color:#000000;display:inline;overflow:visible;visibility:visible;fill:url(#linearGradient3284-2);fill-opacity:1;fill-rule:evenodd;stroke:url(#linearGradient9404);stroke-width:1.06991291;stroke-linecap:round;stroke-linejoin:round;stroke-miterlimit:4;stroke-dasharray:none;stroke-dashoffset:0;stroke-opacity:1;marker:none;marker-start:none;marker-mid:none;marker-end:none" />
      </g>
    </g>
    <path
       inkscape:export-ydpi="74.800003"
       inkscape:export-xdpi="74.800003"
       inkscape:export-filename="/home/jimmac/ximian_art/icons/nautilus/suse93/gnome-fs-directory.png"
       sodipodi:nodetypes="cscccscc"
       id="path233-5"
       d="m 21.527038,23.702238 c 0.669792,-0.02639 1.149451,-0.656742 1.198615,-1.390406 0.463618,-6.918276 0.971614,-12.7190634 0.971614,-12.7190634 0.04224,-0.1482565 -0.09832,-0.2965121 -0.28114,-0.2965121 H 3.2905728 c 0,0 -1.0834287,13.0994285 -1.0834287,13.0994285 -0.067076,0.588309 -0.2728642,1.081121 -0.9074848,1.308161 l 20.2273787,-0.0016 z"
       style="color:#000000;display:block;visibility:visible;fill:url(#linearGradient9772);fill-opacity:1;fill-rule:nonzero;stroke:#3465a4;stroke-width:0.59226155;stroke-linecap:butt;stroke-linejoin:round;stroke-miterlimit:4;stroke-dasharray:none;stroke-dashoffset:0;stroke-opacity:1;marker:none;marker-start:none;marker-mid:none;marker-end:none"
       inkscape:connector-curvature="0" />
    <path
       style="opacity:0.46590911;fill:none;fill-opacity:1;fill-rule:evenodd;stroke:url(#linearGradient322-1);stroke-width:0.60006285px;stroke-linecap:round;stroke-linejoin:miter;stroke-opacity:1"
       d="M 3.7994298,9.960143 23.000156,10 22.078478,22.299996 c -0.04937,0.658913 -0.263893,0.878264 -1.096528,0.878264 -1.095851,0 -16.7922948,-0.01993 -18.3830937,-0.01993 0.1367828,-0.197279 0.1954297,-0.607942 0.1962147,-0.617775 z"
       id="path304-3"
       sodipodi:nodetypes="ccsscsc"
       inkscape:connector-curvature="0" />
  </g>
</svg>
